X:1
T:Title
%%score { ( 1 3 4 ) | ( 2 5 ) }
L:1/8
Q:1/4=116
M:4/4
K:C
V:1 treble nm="Grand Piano"
V:3 treble 
V:4 treble 
V:2 bass 
V:5 bass 
V:1
 C3 E [EA]2 [EG]2 | [Ec]4 [EG]2 z2 | [Ge]3 [Gd] [Ac]2 [FA]2 | [EG]6 z2 | C3 E [EA]2 [EG]2 | %5
w: Adam~Geibel * * *|||||
 [Ec]4 [Ge]2 z2 | [Gd]3 [GB] [^FA]2 [Fd]2 | G6 z2 | z2[K:bass] z[K:treble] G [FB]2 A2 | %9
w: ||||
 [CEA]4 [G,CEG]2 z2 | F4 z4 | [CEG]6 z2 | C3 D E2 F2 | G2 A2 B2 c2 | e4 d4 | [CEc]6 z2 | %16
w: |||||||
 [DB]2 [DB]2 [Ec]2 [DB]2 | [DB]4 [CA]2 z2 | [B,^G]2 [CA]2 [DB]2 [CA]2 | [B,D]6 z2 | %20
w: ||||
 [DB]2 [DB]2 [Ec]2 [DB]2 | [DB]4 [DA]2 z2 | [^CGA]2 [CGA]2 [CGB]2 [CGA]2 | [^Fd]6 z2 | %24
w: ||||
 D2 c2 B2 A2 | G4 [B,B]2 z2 | E2 d2 c2 B2 | c6 z2 | [Cc]2 [Cc]2 [_EG]2 [EA]2 | B4 D2 z2 | %30
w: ||||||
 E2 E2 ^F2 F2 |[M:6/4] [B,G]12[K:bass] |[M:4/4] C3 E[K:treble] [EA]2 [EG]2 | [Ec]4 [EG]2 z2 | %34
w: ||||
 [Ge]3 [Gd] [Ac]2 [FA]2 | [EG]6 z2 | C3 E [EA]2 [EG]2 | [Ec]4 [Ge]2 z2 | [Gd]3 [GB] [^FA]2 [Fd]2 | %39
w: |||||
 G6 z2 | z2[K:bass] z[K:treble] G [FB]2 A2 | [CEA]4 [G,CEG]2 z2 | F4 z4 | [CEG]6 z2 | C3 D E2 F2 | %45
w: ||||||
 G2 A2 B2 c2 | e4 d4 |[M:8/4] [Ec]8 z8 |] %48
w: |||
V:2
 [C,E,]3 [C,G,C] [C,C]2 [C,C]2 | [C,G,]4 [C,C]2 z2 | [C,C]3 [E,C] [F,C]2 [F,C]2 | [C,C]6 z2 | %4
 [C,E,]3 [C,G,C] [C,C]2 [C,C]2 | [C,G,]4 [C,C]2 z2 | [D,B,]3 [D,D] [D,C]2 [D,C]2 | [G,B,]6 z2 | %8
 [D,G,B,]2 z2 [D,G,B,]2 G,,2 | [C,G,]2 G,,2 C,2 G,,2 | D,2 z G [D,G,B,]2 G,,2 | C,2 G,,2 C,2 z2 | %12
 C,3 D, E,2 F,2 | G,2 A,2[K:treble] B,2 C2 | [G,CG]4 [G,B,F]4 | C,6 z2 | G,,2 D,2 G,2 D,2 | %17
 D,,2 D,2 ^F,2 D,2 | D,,2 D,2 ^F,2 D,2 | G,,2 D,2 G,2 D,2 | G,,2 D,2 G,2 E,2 | A,,2 A,2 A,2 A,2 | %22
 A,,2 A,2 A,2 A,2 | z2 D2 D2 D2 | D,,2 D,2 [^F,C]2 D,2 | G,,2 z[K:treble] A G,2[K:bass] D,2 | %26
 E,,2 E,2 [^G,D]2 E,2 | A,,2 E,2 A,2 z2 | [A,,A,]2 [A,,A,]2 [C,G,]2 [C,G,]2 | %29
 [D,G,D]4 [D,G,B,]2 z2 | [D,_B,^C]2 [D,B,C]2 [D,A,=C]2 [D,A,C]2 |[M:6/4] .G,6 z6 | %32
[M:4/4] [C,E,]3 [C,G,C] [C,C]2 [C,C]2 | [C,G,]4 [C,C]2 z2 | [C,C]3 [E,C] [F,C]2 [F,C]2 | %35
 [C,C]6 z2 | [C,E,]3 [C,G,C] [C,C]2 [C,C]2 | [C,G,]4 [C,C]2 z2 | [D,B,]3 [D,D] [D,C]2 [D,C]2 | %39
 [G,B,]6 z2 | [D,G,B,]2 z2 [D,G,B,]2 G,,2 | [C,G,]2 G,,2 C,2 G,,2 | D,2 z G [D,G,B,]2 G,,2 | %43
 C,2 G,,2 C,2 z2 | C,3 D, E,2 F,2 | G,2 A,2[K:treble] B,2 C2 | [G,CG]4 [G,B,F]4 | %47
[M:8/4][K:bass] [C,C]8 z8 |] %48
V:3
 x8 | x8 | x8 | x8 | x8 | x8 | x8 | x8 | F4[K:bass][K:treble] z4 | x8 | [G,B,]2 z2 [FB]2 A2 | %11
 G,2 z2 G,2 z2 | x8 | x8 | x8 | x8 | x8 | x8 | x8 | x8 | x8 | x8 | x8 | D2 z2 z4 | x8 | x8 | x8 | %27
 z4 C2 E,2 | x8 | x8 | x8 |[M:6/4] z4[K:bass] F,2- F,4- F,3/2 z/ |[M:4/4] x4[K:treble] x4 | x8 | %34
 x8 | x8 | x8 | x8 | x8 | x8 | F4[K:bass][K:treble] z4 | x8 | [G,B,]2 z2 [FB]2 A2 | G,2 z2 G,2 z2 | %44
 x8 | x8 | x8 |[M:8/4] x16 |] %48
V:4
 x8 | x8 | x8 | x8 | x8 | x8 | x8 | x8 | z2[K:bass] G,,2[K:treble] z4 | x8 | x8 | x8 | x8 | x8 | %14
 x8 | x8 | x8 | x8 | x8 | x8 | x8 | x8 | x8 | x8 | x8 | x8 | x8 | x8 | x8 | x8 | x8 | %31
[M:6/4] x4[K:bass] x8 |[M:4/4] x4[K:treble] x4 | x8 | x8 | x8 | x8 | x8 | x8 | x8 | %40
 z2[K:bass] G,,2[K:treble] z4 | x8 | x8 | x8 | x8 | x8 | x8 |[M:8/4] x16 |] %48
V:5
 x8 | x8 | x8 | x8 | x8 | x8 | x8 | x8 | x8 | x8 | z2 G,,2 z4 | x8 | x8 | x4[K:treble] x4 | x8 | %15
 x8 | x8 | x8 | x8 | x8 | x8 | x8 | x8 | D,6 z2 | x8 | z2 D,2[K:treble] z4[K:bass] | x8 | x8 | x8 | %29
 x8 | x8 |[M:6/4] G,,12 |[M:4/4] x8 | x8 | x8 | x8 | x8 | x8 | x8 | x8 | x8 | x8 | z2 G,,2 z4 | %43
 x8 | x8 | x4[K:treble] x4 | x8 |[M:8/4][K:bass] x16 |] %48

